X:155
T:Eavesdropper, The
R:jig
H:Also played in G, #150
Z:id:hn-jig-155
M:6/8
K:A
c2c cBA|cee ecA|dff ecA|cBB BAF|E2c cBA|cee ecA|dff ecB|1 BAG A2B:|2 BAG Ace||
~a3 gfe|fga ecA|dff ecA|cBB Bce|~a3 bge|fga ecA|dff ecB|1 BAG Ace:|2 BAG A2B||

